img/favicon.svg

<svg width="32" height="32" viewBox="0 0 32 32" fill="none" xmlns="http://www.w3.org/2000/svg">
<circle cx="16" cy="16" r="16" fill="white"/>
<path d="M23.5833 11.8333H22.695L20.8533 6.76331C20.7009 6.34526 20.4239 5.98402 20.0597 5.72831C19.6955 5.47261 19.2617 5.33474 18.8167 5.33331H17.0833C16.4875 5.33331 16 5.82081 16 6.41665C16 7.01248 16.4875 7.49998 17.0833 7.49998H18.8167L20.3983 11.8333H15.1875L14.7975 10.75H14.895C15.4908 10.75 15.9783 10.2625 15.9783 9.66665C15.9783 9.07081 15.4908 8.58331 14.895 8.58331H11.6667C11.0708 8.58331 10.5833 9.07081 10.5833 9.66665C10.5833 10.2625 11.0708 10.75 11.6667 10.75H12.4792L14.4508 16.1666H13.725C13.2483 13.7508 11.2225 11.9633 8.6875 11.8441C5.65417 11.6925 3 14.2166 3 17.25C3 20.2833 5.38333 22.6666 8.41667 22.6666C11.0817 22.6666 13.2375 20.8358 13.725 18.3333H18.275C18.7517 20.7491 20.7775 22.5366 23.3125 22.6558C26.3458 22.7966 29 20.2833 29 17.2391C29 14.2166 26.6167 11.8333 23.5833 11.8333ZM9.5 18.3333H11.4717C11.0167 19.6658 9.73833 20.5866 8.2 20.4891C6.58583 20.3916 5.2425 19.0266 5.16667 17.4016C5.09083 15.5058 6.5425 14 8.41667 14C9.8575 14 11.0383 14.8991 11.4717 16.1666H9.5C8.90417 16.1666 8.41667 16.6541 8.41667 17.25C8.41667 17.8458 8.90417 18.3333 9.5 18.3333ZM18.275 16.1666H16.7583L15.9675 14H19.25C18.7733 14.6283 18.4267 15.3541 18.275 16.1666ZM23.4533 20.5C21.785 20.435 20.3767 19.0158 20.3333 17.3366C20.3117 16.2966 20.7558 15.3866 21.4708 14.78L22.1425 16.6216C22.3483 17.185 22.9658 17.4775 23.5292 17.2716C24.0925 17.0658 24.385 16.4483 24.1792 15.885L23.4967 14.0108L23.5075 14C23.9418 13.9852 24.3747 14.0585 24.7799 14.2156C25.1851 14.3728 25.5543 14.6104 25.8651 14.9141C26.1759 15.2178 26.422 15.5814 26.5884 15.9829C26.7548 16.3844 26.8381 16.8154 26.8333 17.25C26.8333 19.1133 25.3383 20.565 23.4533 20.5Z" fill="url(#paint0_linear_103_191)"/>
<defs>
<linearGradient id="paint0_linear_103_191" x1="16" y1="5.33331" x2="16" y2="22.6666" gradientUnits="userSpaceOnUse">
<stop stop-color="#FFB60D"/>
<stop offset="1" stop-color="#E59317"/>
</linearGradient>
</defs>
</svg>

<svg width="32" height="32" fill="none" xmlns="http://www.w3.org/2000/svg"><circle cx="16" cy="16" r="16" fill="#fff"/><path d="M23.583 11.833h-.888l-1.842-5.07a2.175 2.175 0 0 0-2.036-1.43h-1.734c-.595 0-1.083.488-1.083 1.084 0 .595.488 1.083 1.083 1.083h1.734l1.581 4.333h-5.21l-.39-1.083h.097c.596 0 1.083-.488 1.083-1.083 0-.596-.487-1.084-1.083-1.084h-3.228c-.596 0-1.084.488-1.084 1.084 0 .595.488 1.083 1.084 1.083h.812l1.972 5.417h-.726c-.477-2.416-2.502-4.204-5.037-4.323C5.654 11.693 3 14.217 3 17.25c0 3.033 2.383 5.417 5.417 5.417 2.665 0 4.82-1.831 5.308-4.334h4.55c.477 2.416 2.503 4.204 5.038 4.323 3.033.14 5.687-2.373 5.687-5.417 0-3.022-2.383-5.406-5.417-5.406ZM9.5 18.333h1.972c-.455 1.333-1.734 2.254-3.272 2.156-1.614-.097-2.957-1.462-3.033-3.087C5.09 15.506 6.543 14 8.417 14c1.44 0 2.621.9 3.055 2.167H9.5c-.596 0-1.083.487-1.083 1.083s.487 1.083 1.083 1.083Zm8.775-2.166h-1.517L15.968 14h3.282a5.128 5.128 0 0 0-.975 2.167Zm5.178 4.333c-1.668-.065-3.076-1.484-3.12-3.163a3.231 3.231 0 0 1 1.138-2.557l.671 1.842a1.08 1.08 0 0 0 1.387.65 1.08 1.08 0 0 0 .65-1.387l-.682-1.874.01-.011a3.217 3.217 0 0 1 3.326 3.25c0 1.863-1.495 3.315-3.38 3.25Z" fill="url(#a)"/><defs><linearGradient id="a" x1="16" y1="5.333" x2="16" y2="22.667" gradientUnits="userSpaceOnUse"><stop stop-color="#FFB60D"/><stop offset="1" stop-color="#E59317"/></linearGradient></defs></svg>
